X:1
T:NUVIDA.
T:NUVIDA.
T:ORIENTAL INTERMEZZO.
T:E. B. CLAYPOOLE.
T:Copyright 1912 by Jos. W. Stern &amp; Co.
T:Copyright 1912 by Jos. W. Stern &amp; Co.
T:Copyright 1912 by Jos. W. Stern &amp; Co.
T:Copyright 1912 by Jos. W. Stern &amp; Co.
C:E. B. CLAYPOOLE.
Z:Copyright 1912 by Jos. W. Stern & Co.
%%score { ( 1 2 ) | ( 3 4 ) }
L:1/8
Q:1/4=90
M:2/4
K:C
V:1 treble nm="Piano" snm="Pno."
V:2 treble 
V:3 treble 
V:4 treble 
V:1
"^Moderato."!mf! g4- | g2- g z | G4 | G2- G z | z4 | z4 ||!p! c2 B2 | G4 | z A/B/ AG | z A/B/ AG | %10
 B2 ^A2 | ^F4 | z (G/^A/ G)^F | [^D^FB][=F=A]/B/ [B,FA][B,FG] | c2 B2 | G4 | z A/B/ AG | %17
 z [D_Ac]/d/ [DAc][DA_B] | _e2 d2 | _B4 | z [DG=B]/d/ [D^FB][CFA] | z [B,=FA]/B/ [CFA][B,FG] | %22
!f! c2 B2 | G4 | z A/B/ AG | z A/B/ AG | B2 ^A2 | ^F4 | z (G/^A/ G)^F | %29
 [^D^FB][=F=A]/B/ [B,FA][B,FG] | c2 B2 | G4 | z A/B/ AG | z [^Fcd]/d/ [Fcd][Fc] | %34
 ([=FAB]/c/[FAd]) ([=FAB]/c/[FAd]) | ([FAce]2 [FGd]2 | [EGc]) z z2 | z (C/D/ E/C/D/E/) || %38
 ([B,B]3 [E,E]) | [A,A]3 [E,E] | [G,G]2 [G,G]2- | [G,G] (C/D/ E/C/D/E/) | [B,B]3 [E,E] | %43
 [A,A]3 [E,E] | [G,G]2 [G,G]2- | [G,G](D/E/ F/D/E/F/) | e2 .e z | z (D/E/ F/D/E/F/) | d2 .d z | %49
 z (D/E/ F/D/E/F/) | !>![Cc]2 !>![Cc]2 | [B,B]2 [Dd]2 | [G,EG] (A/B/ G)(A/B/ | %53
 [FG]) (C/D/ E/C/D/E/) | ([B,B]3 [E,E]) | ([B,B]3 [E,E]) | [G,G]2 [G,G]2- | %57
 ([G,G] G/A/ _B/G/A/B/) | ([Dd]3 [G,G]) | ([Dd]3 [^G,^G]) | !tenuto![A,A]2 !tenuto![A,A]2- | %61
 [A,A] A/=B/ c/A/B/c/ | e4- | e (A/B/ c/A/B/c/) | e4- | e [CE^F][CEG][CEA] | %66
 ([=FAB]/c/[FAd]) ([=FAB]/c/[FAd]) | ([FAce]2 [FGd]2 | [EGc]) C/D/ E/C/D/E/ | c2 z2 || c2 B2 | G4 | %72
 z A/B/ AG | z A/B/ AG | B2 ^A2 | ^F4 | z (G/^A/ G)^F | [^D^FB][=F=A]/B/ [B,FA][B,FG] | c2 B2 | %79
 G4 | z A/B/ AG | z [^Fcd]/d/ [Fcd][Fc] | ([=FAB]/c/[FAd]) ([=FAB]/c/[FAd]) | ([FAce]2 [FGd]2 | %84
 [EGc]) z z2 |[K:Ab][M:2/4]"^Trio" x (3e/f/e/ =de |: e4- | e (3[Ac]/d/c/ [GB][FA] | %88
 [EG] (3[ac']/d'/c'/ [gb][fa] | [eg] (3[Bd]/e/d/ [=Ac][Bd] | f4- | f (3f/g/f/ [ce][Bd] | %92
 [Ac] (3[d'f']/g'/f'/ [c'e'][bd'] | [ac'] (3[ce]/f/e/ [=B=d][ce] | e4- |1 %95
 [Ece] (3[Ac]/d/c/ [GB][FA] | [EG] (3[gc']/=d'/c'/ [gb][fa] | [eg] z [=D^F][EG] | B4 | %99
 [B,GB] [=B,=B][C=Ac][=D_A=d] | [EGe](3=d/e/f/ e (3=D/E/F/ | E (3[ce]/f/e/ [=B=d][ce] :|2 %102
 [Ece] (3[GB]/c/B/ [^F^A][GB] || =d4- | [=D=B=d] (3[G=B]/c/B/ [^FA][=EG] | %105
 [=D^F]{/^c}=d [=EG]{/c}d | [^E^G]{/^c}=d [^F=A]{/c}d | G4- | G2- G G ||[K:C] c2 B2 | G4 | %111
 z A/B/ AG | z A/B/ AG | B2 ^A2 | ^F4 | z (G/^A/ G)^F | [^D^FB][=F=A]/B/ [B,FA][B,FG] | c2 B2 | %118
 G4 | z A/B/ AG | z [^Fcd]/d/ [Fcd][Fc] | ([=FAB]/c/[FAd]) ([=FAB]/c/[FAd]) | ([FAce]2 [FGd]2 | %123
 [EGc]) z z2 | z (C/D/ E/C/D/E/) || ([B,B]3 [E,E]) | [A,A]3 [E,E] | [G,G]2 [G,G]2- | %128
 [G,G] (C/D/ E/C/D/E/) | [B,B]3 [E,E] | [A,A]3 [E,E] | [G,G]2 [G,G]2- | [G,G](D/E/ F/D/E/F/) | %133
 e2 .e z | z (D/E/ F/D/E/F/) | d2 .d z | z (D/E/ F/D/E/F/) | !>![Cc]2 !>![Cc]2 | [B,B]2 [Dd]2 | %139
 [G,EG] (A/B/ G)(A/B/ | [FG]) (C/D/ E/C/D/E/) | ([B,B]3 [E,E]) | ([B,B]3 [E,E]) | [G,G]2 [G,G]2- | %144
 ([G,G] G/A/ _B/G/A/B/) | ([Dd]3 [G,G]) | ([Dd]3 [^G,^G]) | !tenuto![A,A]2 !tenuto![A,A]2- | %148
 [A,A] A/=B/ c/A/B/c/ | e4- | e (A/B/ c/A/B/c/) | e4- | e [CE^F][CEG][CEA] | %153
 ([=FAB]/c/[FAd]) ([=FAB]/c/[FAd]) | ([FAce]2 [FGd]2 | [EGc]) C/D/ E/C/D/E/ | c z !>![cegc'] z |] %157
V:2
 z2 z [Ac_e] | [GBd][G^A^c] [GBd] x | z2 z [A,C_E] | [G,B,D][G,^A,^C] [G,B,D] x | x4 | x4 || %6
 z [CE]z[CE] | z [B,^D]z[B,D] | z [CE][CE][B,^D] | z [CE][CE][B,^D] | z [B,^D]z[B,D] | %11
 z [^A,^^C]z[A,C] | z [^A,E][A,E] x | x B, x2 | z [CE]z[CE] | z [B,^D]z[B,D] | z [CE][CE][B,^D] | %17
 x4 | z [_EG]z[EG] | z [D^F]z[DF] | x4 | x4 | z [CE]z[CE] | z [B,^D]z[B,D] | z [CE][CE][B,^D] | %25
 z [CE][CE][B,^D] | z [B,^D]z[B,D] | z [^A,^^C]z[A,C] | z [^A,E][A,E] x | x B, x2 | z [CE]z[CE] | %31
 z [B,^D]z[B,D] | z [CE][CE][B,^D] | x4 | x4 | x4 | x4 | x4 || z [EG] z2 | z [CE] z2 | %40
 z [CE]z[CE] | x4 | z [EG] z2 | z [CE] z2 | z [CE]z[CE] | x4 | z [FA][FA] z | x4 | z [FA][FA] z | %49
 x4 | z [FA] z [FA] | z [FG] z [FG] | x EFE | x4 | z [EG] z2 | z [EG] z2 | z [CE]z[CE] | x4 | %58
 z [E_B]2 x | z [E_B]2 x | z [CF] z [CF] | x4 | z ([^Fc]2 [FB]) | [^FA] x3 | z [EB]2 [EA] | %65
 [EG] x3 | x4 | x4 | x4 | x4 || z [CE]z[CE] | z [B,^D]z[B,D] | z [CE][CE][B,^D] | %73
 z [CE][CE][B,^D] | z [B,^D]z[B,D] | z [^A,^^C]z[A,C] | z [^A,E][A,E] x | x B, x2 | z [CE]z[CE] | %79
 z [B,^D]z[B,D] | z [CE][CE][B,^D] | x4 | x4 | x4 | x4 |[K:Ab][M:2/4] x c =Bc |: z [EAc][Gc][Fc] | %87
 x4 | x4 | x4 | z [Fd][Ad][Gd] | [Fd] d x2 | x4 | x4 | z [EAc][Gc][Fc] |1 x4 | x4 | x4 | %98
 z ([B,G][=DG][CG]) | x4 | x4 | x4 :|2 x4 || z [=D=B][^FB][=EB] | x4 | x4 | x4 | z2 z [=A,C_E] | %108
 [=B,=D][^A,^C] [B,D] z ||[K:C] z [CE]z[CE] | z [B,^D]z[B,D] | z [CE][CE][B,^D] | %112
 z [CE][CE][B,^D] | z [B,^D]z[B,D] | z [^A,^^C]z[A,C] | z [^A,E][A,E] x | x B, x2 | z [CE]z[CE] | %118
 z [B,^D]z[B,D] | z [CE][CE][B,^D] | x4 | x4 | x4 | x4 | x4 || z [EG] z2 | z [CE] z2 | %127
 z [CE]z[CE] | x4 | z [EG] z2 | z [CE] z2 | z [CE]z[CE] | x4 | z [FA][FA] z | x4 | z [FA][FA] z | %136
 x4 | z [FA] z [FA] | z [FG] z [FG] | x EFE | x4 | z [EG] z2 | z [EG] z2 | z [CE]z[CE] | x4 | %145
 z [E_B]2 x | z [E_B]2 x | z [CF] z [CF] | x4 | z ([^Fc]2 [FB]) | [^FA] x3 | z [EB]2 [EA] | %152
 [EG] x3 | x4 | x4 | x4 | x4 |] %157
V:3
 z G/^F/ G2 | (=FEF) z |[K:bass] z G,/^F,/ G,2 | =F,E, F, z | G,,4- | G,,2 z2 || C,G, G,,G, | %7
 C,G, G,,G, | C,G, G,,G, | C,G, G,,G, | B,,^F, ^F,,F, | B,,^F, ^F,,F, | ^C,^F, ^F,,F, | %13
 [B,,,B,,] (=G,,3 | C,)G, G,,G, | C,G, G,,G, | C,G, G,,G, | _B,, _B,3 | _E,_B, E,B, | %19
 _E,_B, _B,,B, | D,4 | z2 z G, | C,G, G,,G, | C,G, G,,G, | C,G, G,,G, | C,G, G,,G, | %26
 B,,^F, ^F,,F, | B,,^F, ^F,,F, | ^C,^F, ^F,,F, | [B,,,B,,] (=G,,3 | C,)G, G,,G, | C,G, G,,G, | %32
 C,G, G,,G, | z EDC | (B,/C/D) (B,/C/D) | (A,2 B,2 | C)"^R.H." C,/D,/ E,/C,/E,/G,/ | C x x2 || %38
 [C,,C,]2 [G,,,G,,]2 | [C,,C,]2 [G,,,G,,]2 | [C,,C,]2 [G,,,G,,]2 | [C,,C,] (C,/D,/ E,/C,/D,/E,/) | %42
 [C,,C,]2 [G,,,G,,]2 | [C,,C,]2 [G,,,G,,]2 | [C,,C,]2 [G,,,G,,]2 | [D,,D,] (D,/E,/ F,/D,/E,/F,/) | %46
 E2 .E (3A,,/B,,/^C,/ | D,(D,/E,/ F,/D,/E,/F,/) | D2 .D (3A,,/B,,/^C,/ | D,(D,/E,/ F,/D,/E,/F,/) | %50
 [D,,D,]2 [G,,,G,,]2 | [D,,D,]2 [G,,,G,,]2 | C, ([^C,^A,][D,B,][C,A,] | %53
 [D,B,]) (=C,/D,/ E,/C,/D,/E,/) | [C,,C,]2 [G,,,G,,]2 | [C,,C,]2 [G,,,G,,]2 | [C,,C,]2 [G,,,G,,]2 | %57
 [C,,C,] (G,/A,/ _B,/G,/A,/B,/) | [C,,C,]2 [G,,,G,,]2 | [C,,C,]2 [G,,,G,,]2 | [F,,F,]2 [C,,C,]2 | %61
 [F,,F,] A,/=B,/ C/A,/B,/C/ | [D,,D,] !>!E2 D | C (A,/B,/ C/A,/B,/C/) | [G,,G,] (!>!B,2 A, | %65
 G,) ^F,G,A, | (B,/C/D) (B,/C/D) | (A,2 B,2 | C) C,/D,/ E,/C,/D,/E,/ | C2 z2 || C,G, G,,G, | %71
 C,G, G,,G, | C,G, G,,G, | C,G, G,,G, | B,,^F, ^F,,F, | B,,^F, ^F,,F, | ^C,^F, ^F,,F, | %77
 [B,,,B,,] (=G,,3 | C,)G, G,,G, | C,G, G,,G, | C,G, G,,G, | z EDC | (B,/C/D) (B,/C/D) | (A,2 B,2 | %84
 C)"^R.H." C,/D,/ E,/C,/E,/G,/ |[K:Ab][M:2/4] C z z2 |: A,,[E,A,C] E,,[E,A,C] | %87
 A,,[E,A,C] E,,[E,A,C] | B,,[E,G,D] E,,[E,G,D] | B,,[E,G,D] E,,[E,G,D] | B,,[E,G,D] E,,[E,G,D] | %91
 B,,[E,G,D] E,,[E,G,D] | A,,[E,A,C] E,,[E,A,C] | A,,[E,A,C] E,,[E,A,C] | A,,[E,A,C] E,,[E,A,C] |1 %95
 A,,[E,A,C] E,,[E,A,C] | B,,[G,B,E] B,,[G,B,E] | B,,[G,B,E] B,,[G,B,E] | [E,,E,]2 [B,,,B,,]2 | %99
 [E,,E,] z [F,,F,][B,,,B,,] | [E,,E,] (3=D/E/F/ E (3=D,/E,/F,/ | E, z z2 :|2 A,, z z2 || %103
 G,,[=D,G,=B,] =D,,[D,G,B,] | G,,[=D,G,=B,] =D,,[D,G,B,] | =D,,[=D,^F,C] D,,[D,F,C] | %106
 =D,,[=D,^F,C] D,,[D,F,C] | z (G,/^F,/ G,2) | =F,=E, F, z ||[K:C] C,G, G,,G, | C,G, G,,G, | %111
 C,G, G,,G, | C,G, G,,G, | B,,^F, ^F,,F, | B,,^F, ^F,,F, | ^C,^F, ^F,,F, | [B,,,B,,] (=G,,3 | %117
 C,)G, G,,G, | C,G, G,,G, | C,G, G,,G, | z EDC | (B,/C/D) (B,/C/D) | (A,2 B,2 | %123
 C)"^R.H." C,/D,/ E,/C,/E,/G,/ | C x x2 || [C,,C,]2 [G,,,G,,]2 | [C,,C,]2 [G,,,G,,]2 | %127
 [C,,C,]2 [G,,,G,,]2 | [C,,C,] (C,/D,/ E,/C,/D,/E,/) | [C,,C,]2 [G,,,G,,]2 | [C,,C,]2 [G,,,G,,]2 | %131
 [C,,C,]2 [G,,,G,,]2 | [D,,D,] (D,/E,/ F,/D,/E,/F,/) | E2 .E (3A,,/B,,/^C,/ | %134
 D,(D,/E,/ F,/D,/E,/F,/) | D2 .D (3A,,/B,,/^C,/ | D,(D,/E,/ F,/D,/E,/F,/) | [D,,D,]2 [G,,,G,,]2 | %138
 [D,,D,]2 [G,,,G,,]2 | C, ([^C,^A,][D,B,][C,A,] | [D,B,]) (=C,/D,/ E,/C,/D,/E,/) | %141
 [C,,C,]2 [G,,,G,,]2 | [C,,C,]2 [G,,,G,,]2 | [C,,C,]2 [G,,,G,,]2 | [C,,C,] (G,/A,/ _B,/G,/A,/B,/) | %145
 [C,,C,]2 [G,,,G,,]2 | [C,,C,]2 [G,,,G,,]2 | [F,,F,]2 [C,,C,]2 | [F,,F,] A,/=B,/ C/A,/B,/C/ | %149
 [D,,D,] !>!E2 D | C (A,/B,/ C/A,/B,/C/) | [G,,G,] (!>!B,2 A, | G,) ^F,G,A, | (B,/C/D) (B,/C/D) | %154
 (A,2 B,2 | C) C,/D,/ E,/C,/D,/E,/ | C z !>![C,,C,] z |] %157
V:4
 x4 | x4 |[K:bass] x4 | x4 | x4 | x4 || x4 | x4 | x4 | x4 | x4 | x4 | x4 | x4 | x4 | x4 | x4 | x4 | %18
 x4 | x4 | x4 | G,,4 | x4 | x4 | x4 | x4 | x4 | x4 | x4 | x4 | x4 | x4 | x4 | D,4 | x4 | x4 | %36
 x C,,/D,,/ E,,/C,,/E,,/G,,/ | C, (C,/D,/ E,/C,/D,/E,/) || x4 | x4 | x4 | x4 | x4 | x4 | x4 | x4 | %46
 x4 | x4 | x4 | x4 | x4 | x4 | x4 | x4 | x4 | x4 | x4 | x4 | x4 | x4 | x4 | x4 | x4 | x4 | x4 | %65
 x4 | x4 | x4 | x4 | x4 || x4 | x4 | x4 | x4 | x4 | x4 | x4 | x4 | x4 | x4 | x4 | D,4 | x4 | x4 | %84
 x C,,/D,,/ E,,/C,,/E,,/G,,/ |[K:Ab][M:2/4] C, x3 |: x4 | x4 | x4 | x4 | x4 | x4 | x4 | x4 | x4 |1 %95
 x4 | x4 | x4 | x4 | x4 | x4 | x4 :|2 x4 || x4 | x4 | x4 | x4 | x4 | x4 ||[K:C] x4 | x4 | x4 | x4 | %113
 x4 | x4 | x4 | x4 | x4 | x4 | x4 | D,4 | x4 | x4 | x C,,/D,,/ E,,/C,,/E,,/G,,/ | %124
 C, (C,/D,/ E,/C,/D,/E,/) || x4 | x4 | x4 | x4 | x4 | x4 | x4 | x4 | x4 | x4 | x4 | x4 | x4 | x4 | %139
 x4 | x4 | x4 | x4 | x4 | x4 | x4 | x4 | x4 | x4 | x4 | x4 | x4 | x4 | x4 | x4 | x4 | x4 |] %157

